X: 1664
T: the Boys From the East   #2
R: hornpipe, reel
%S: s:2 b:14(7+7)
B: O'Neill's 1850 #1664
Z: Compacted via repeats and multiple endings [JC]
M: 2/4
L: 1/16
K: A
(3(EFG) |: AGAE CEAc | e^dec Acea |\
[1,3 faea daca | BABc dBGE :|\
[2,4 (3(fga) ed cBAG | A2A2 A2 :: (EG) | BABG EGBc |
| dcdB GBed | cBcA EAcd | e^def e2(fg) |\
| agae fdBG | ABcd eaec | dfed cBAG | A2A2 A2 :|
